logos/graylog.svg

<?xml version="1.0" encoding="UTF-8"?>
<svg width="512px" height="150px" viewBox="0 0 512 150" version="1.1" xmlns="http://www.w3.org/2000/svg" xmlns:xlink="http://www.w3.org/1999/xlink">
    <g>
        <path d="M42.9031988,31.8709477 C52.7096442,31.8709477 62.0564126,35.1653004 68.7983438,40.8346517 L68.7983438,40.8346517 L68.7983438,33.6330433 L88.4112347,33.6330433 L88.4112347,102.508 C88.4112347,132.999916 72.8588251,148.475713 42.2136831,148.475713 C27.2741764,148.475713 14.8628939,142.729749 4.29031988,131.007982 L4.29031988,131.007982 L1.99193423,128.403145 L17.7741824,115.991862 L19.8427294,118.520087 C27.6572407,128.326532 36.467719,130.395079 42.5201345,130.395079 C59.2983498,130.395079 67.8789895,123.346697 68.7217309,108.866867 C61.826574,114.766057 53.8588371,117.217668 42.4435217,117.217668 C16.2419253,117.217668 0,94.9233274 0,74.3144694 C0,50.8709357 19.2298266,31.8709477 42.9031988,31.8709477 Z M232.290176,33.6330433 L254.507904,87.1088161 L276.955471,33.6330433 L298.177232,33.6330433 L248.608714,148.3991 L227.770018,148.3991 L243.322428,111.854768 L210.225674,33.6330433 L232.290176,33.6330433 Z M176.592631,31.8709477 C199.959552,31.8709477 215.052284,43.2862631 215.20551,60.9838326 L215.20551,60.9838326 L215.20551,116.221701 L196.358747,116.221701 L196.358747,111.931381 C190.459558,116.068475 183.717626,117.983797 175.366825,117.983797 C153.915226,117.983797 138.899106,105.419288 138.899106,87.4152676 C138.899106,73.2418894 150.314422,57.9959312 175.213599,57.9959312 C182.645046,57.9959312 189.540203,59.9112526 195.439393,63.4354439 L195.439393,63.4354439 L195.439393,62.0564126 C195.439393,52.0967414 184.790206,50.0281943 175.903115,50.0281943 C169.391022,50.0281943 163.185381,51.5604514 156.290224,54.931417 L156.290224,54.931417 L153.378936,56.3104484 L144.568457,39.3790075 L147.86281,37.9999761 C157.669256,33.8628819 167.092637,31.8709477 176.592631,31.8709477 Z M143.57249,31.8709477 L143.57249,53.1693214 L139.588622,52.1733543 C137.6733,51.79029 135.911205,51.5604514 134.302335,51.5604514 C124.725728,51.5604514 119.286215,58.2257698 119.286215,69.7943109 L119.286215,69.7943109 L119.286215,116.298314 L99.5967115,116.298314 L99.5967115,33.6330433 L119.286215,33.6330433 L119.286215,38.0765889 C125.108792,32.4072377 131.544272,31.8709477 140.278138,31.8709477 L143.57249,31.8709477 Z M177.588598,76.076565 C166.020057,76.076565 159.354738,80.4434978 159.354738,88.0281704 C159.354738,95.612843 166.020057,99.9797758 177.588598,99.9797758 C189.157139,99.9797758 195.822457,95.612843 195.822457,88.0281704 C195.822457,80.4434978 189.157139,76.076565 177.588598,76.076565 Z M45.1249716,50.71771 C29.7257877,50.71771 20.5322451,62.7459283 20.5322451,74.3144694 C20.5322451,90.4031689 33.0201405,99.0604215 44.7419073,99.0604215 C57.9959312,99.0604215 68.7983438,88.258009 68.7225368,75.0805979 C68.7225368,61.826574 57.9193184,50.71771 45.1249716,50.71771 Z" fill="#A6AFBD"></path>
        <path d="M467.798093,34.5523976 C479.519859,34.5523976 491.471465,39.4556203 497.983558,48.8790015 L498.290009,48.8790015 L498.290009,36.467719 L512.00371,36.467719 L512.00371,104.959611 C512.00371,134.225722 497.983558,149.47168 467.18519,149.47168 C453.165037,149.47168 440.830368,144.262006 430.104568,132.387013 L441.060206,123.729761 C449.48762,134.225722 459.217453,137.443462 467.415028,137.443462 C488.790015,137.443462 498.213396,126.794275 498.213396,109.096706 L498.213396,103.427354 L497.983558,103.427354 C490.475498,112.391058 482.737599,116.834604 467.338416,116.834604 C440.677142,116.834604 426.427151,93.9273602 426.427151,75.4636622 C426.427151,52.4031928 445.350526,34.5523976 467.798093,34.5523976 Z M374.100571,34.6290105 C399.076362,34.6290105 417.080383,53.8588371 417.080383,76.2297907 C417.080383,98.9838087 399.995716,117.753958 374.100571,117.753958 C348.205426,117.753958 331.120274,98.9838087 331.120274,76.2297907 C331.044146,53.8588371 349.048167,34.6290105 374.100571,34.6290105 Z M315.56835,0 L315.56835,91.0926846 C315.56835,100.056389 320.011895,103.120903 324.378828,103.120903 L328.515922,103.120903 L328.515922,115.91525 L322.846571,115.91525 C310.20545,115.91525 301.778036,108.713641 301.778036,92.0886517 L301.778036,0 L315.56835,0 Z M374.023958,47.4233572 C358.854613,47.4233572 345.677202,59.7580269 345.677202,76.2297907 C345.677202,91.4757489 358.778,104.882999 374.023958,104.882999 C389.269916,104.882999 402.370714,91.4757489 402.370714,76.2297907 C402.370714,59.7580269 389.269916,47.4233572 374.023958,47.4233572 Z M470.249704,47.4233572 C451.63278,47.4233572 441.136819,62.2096383 441.136819,75.4636622 C441.136819,93.7741345 455.463423,104.729773 469.790027,104.729773 C485.495662,104.729773 498.290009,92.0886517 498.290009,76.2297907 C498.290009,60.217704 485.189211,47.4233572 470.249704,47.4233572 Z" fill="#FF3633"></path>
        <path d="M355.943324,73.9314051 C357.092517,73.9314051 358.088484,74.5443079 358.624774,75.540275 L361.152999,75.540275 L365.136867,65.9636682 C365.290093,65.503991 365.74977,65.1209268 366.209447,64.967701 C367.052188,64.8144753 367.89493,65.2741525 368.048155,66.1168939 L372.261862,84.6572048 L376.552182,59.6814141 L376.552182,59.6814141 C376.628795,59.0685112 377.088472,58.6088341 377.701375,58.4556084 C378.544117,58.2257698 379.386858,58.7620598 379.616697,59.6048012 L384.213468,78.3749507 L386.588466,71.4031809 C386.665079,71.0967294 386.894918,70.790278 387.201369,70.5604395 C387.890885,70.1007623 388.886852,70.253988 389.346529,70.9435037 L391.338463,73.7781794 C391.415076,74.4676951 391.415076,75.1572108 391.415076,75.8467265 C391.415076,76.7660807 391.338463,77.685435 391.261851,78.5281764 C390.955399,78.4515635 390.725561,78.221725 390.495722,77.9918864 L390.495722,77.9918864 L388.503788,75.2338236 L385.439274,84.5039791 C385.132822,85.3467205 384.290081,85.7297848 383.447339,85.4999462 C382.911049,85.3467205 382.527985,84.8870433 382.451372,84.4273662 L382.451372,84.4273662 L378.314278,67.7257638 L373.947345,93.0846188 C373.79412,93.9273602 373.027991,94.4636502 372.18525,94.3870374 C371.495734,94.3104245 371.036057,93.7741345 370.882831,93.0846188 L366.209447,71.6330194 L363.681223,77.685435 C363.451384,78.2983378 362.838481,78.6814021 362.225578,78.6814021 L362.225578,78.6814021 L358.624774,78.6814021 C358.088484,79.6007564 357.092517,80.2136592 355.943324,80.2136592 C354.257842,80.2136592 352.802197,78.8346278 352.802197,77.0725321 C352.87881,75.3870493 354.257842,73.9314051 355.943324,73.9314051 Z" fill="#A6AFBD"></path>
    </g>
</svg>

<svg width="512" height="150" xmlns="http://www.w3.org/2000/svg">
	<path d="M42.903 31.87c9.807 0 19.153 3.295 25.895 8.965v-7.202h19.613v68.875c0 30.492-15.552 45.968-46.197 45.968-14.94 0-27.351-5.746-37.924-17.468l-2.298-2.605 15.782-12.411 2.069 2.528c7.814 9.807 16.625 11.875 22.677 11.875 16.778 0 25.359-7.048 26.202-21.528-6.895 5.9-14.863 8.35-26.278 8.35C16.242 117.218 0 94.924 0 74.315c0-23.443 19.23-42.443 42.903-42.443Zm189.387 1.763 22.218 53.476 22.447-53.476h21.222L248.61 148.399H227.77l15.552-36.544-33.096-78.222h22.064Zm-55.697-1.762c23.367 0 38.46 11.415 38.613 29.113v55.238h-18.847v-4.29c-5.9 4.136-12.641 6.052-20.992 6.052-21.452 0-36.468-12.565-36.468-30.569 0-14.173 11.415-29.42 36.315-29.42 7.431 0 14.326 1.916 20.225 5.44v-1.379c0-9.96-10.649-12.028-19.536-12.028-6.512 0-12.718 1.532-19.613 4.903l-2.911 1.38-8.81-16.932L147.862 38c9.806-4.137 19.23-6.13 28.73-6.13Zm-33.02 0v21.298l-3.984-.996c-1.916-.383-3.678-.613-5.287-.613-9.576 0-15.016 6.666-15.016 18.234v46.504h-19.69V33.633h19.69v4.444c5.823-5.67 12.258-6.206 20.992-6.206h3.294Zm34.016 44.206c-11.569 0-18.234 4.366-18.234 11.951 0 7.585 6.665 11.952 18.234 11.952 11.568 0 18.233-4.367 18.233-11.952s-6.665-11.951-18.233-11.951ZM45.125 50.717c-15.4 0-24.593 12.029-24.593 23.597 0 16.09 12.488 24.746 24.21 24.746 13.254 0 24.056-10.802 23.98-23.98 0-13.253-10.803-24.362-23.597-24.362Z" fill="#A6AFBD"/>
	<path d="M467.798 34.552c11.722 0 23.673 4.904 30.186 14.327h.306V36.468h13.714v68.492c0 29.266-14.02 44.512-44.819 44.512-14.02 0-26.355-5.21-37.08-17.085l10.955-8.657c8.428 10.496 18.157 13.713 26.355 13.713 21.375 0 30.798-10.649 30.798-28.346v-5.67h-.23c-7.508 8.964-15.245 13.408-30.645 13.408-26.66 0-40.91-22.908-40.91-41.371 0-23.06 18.923-40.912 41.37-40.912Zm-93.697.077c24.975 0 42.98 19.23 42.98 41.6 0 22.755-17.085 41.525-42.98 41.525-25.896 0-42.98-18.77-42.98-41.524-.077-22.371 17.927-41.601 42.98-41.601ZM315.568 0v91.093c0 8.963 4.444 12.028 8.81 12.028h4.138v12.794h-5.67c-12.64 0-21.068-7.201-21.068-23.826V0h13.79Zm58.456 47.423c-15.17 0-28.347 12.335-28.347 28.807 0 15.246 13.101 28.653 28.347 28.653s28.347-13.407 28.347-28.653c0-16.472-13.101-28.807-28.347-28.807Zm96.226 0c-18.617 0-29.113 14.787-29.113 28.04 0 18.311 14.326 29.267 28.653 29.267 15.706 0 28.5-12.641 28.5-28.5 0-16.012-13.1-28.807-28.04-28.807Z" fill="#FF3633"/>
	<path d="M355.943 73.931c1.15 0 2.145.613 2.682 1.61h2.528l3.984-9.577c.153-.46.613-.843 1.072-.996.843-.154 1.686.306 1.84 1.149l4.213 18.54 4.29-24.976c.077-.612.536-1.072 1.15-1.225.842-.23 1.685.306 1.915 1.149l4.596 18.77 2.375-6.972c.077-.306.307-.613.613-.843.69-.46 1.686-.306 2.146.384l1.991 2.834c.077.69.077 1.38.077 2.069 0 .92-.077 1.838-.153 2.681-.307-.076-.536-.306-.766-.536l-1.992-2.758-3.065 9.27c-.306.843-1.149 1.226-1.992.996-.536-.153-.919-.613-.996-1.073l-4.137-16.701-4.367 25.359c-.153.842-.919 1.379-1.762 1.302-.69-.077-1.149-.613-1.302-1.302l-4.674-21.452-2.528 6.052c-.23.613-.843.996-1.455.996h-3.601a3.09 3.09 0 0 1-2.682 1.533c-1.685 0-3.14-1.38-3.14-3.141.076-1.686 1.455-3.142 3.14-3.142Z" fill="#A6AFBD"/>
</svg>
